src/components/00-materials/images-raw/Agreement.svg

<svg width="96" height="96" viewBox="0 0 96 96" fill="none" xmlns="http://www.w3.org/2000/svg">
<path d="M48 75.44L49 76.44C49.8158 77.3204 50.9353 77.8586 52.1324 77.9458C53.3295 78.033 54.5152 77.6629 55.45 76.91C55.9521 76.4672 56.3601 75.928 56.6499 75.3246C56.9397 74.7211 57.1054 74.0656 57.1371 73.3969C57.1688 72.7282 57.0659 72.06 56.8345 71.4318C56.6031 70.8036 56.2479 70.2283 55.79 69.74C56.2202 70.1879 56.7365 70.5444 57.3079 70.7878C57.8792 71.0313 58.4939 71.1568 59.115 71.1568C59.7361 71.1568 60.3508 71.0313 60.9221 70.7878C61.4935 70.5444 62.0098 70.1879 62.44 69.74C63.3119 68.8127 63.7973 67.5878 63.7973 66.315C63.7973 65.0422 63.3119 63.8173 62.44 62.89C62.8972 63.3655 63.4512 63.7373 64.0644 63.9803C64.6777 64.2233 65.3359 64.3319 65.9948 64.2988C66.6536 64.2656 67.2976 64.0914 67.8833 63.788C68.4691 63.4846 68.9828 63.059 69.39 62.54C70.1232 61.5611 70.481 60.3517 70.3984 59.1315C70.3159 57.9113 69.7984 56.7611 68.94 55.89L57.6 44.23M79.74 44.23L63.5 27.48C63.1226 27.0716 62.913 26.536 62.913 25.98C62.913 25.4239 63.1226 24.8883 63.5 24.48L67.19 20.67C67.3818 20.464 67.614 20.2998 67.8721 20.1875C68.1301 20.0752 68.4086 20.0173 68.69 20.0173C68.9714 20.0173 69.2499 20.0752 69.5079 20.1875C69.766 20.2998 69.9982 20.464 70.19 20.67L86.39 37.38C86.7674 37.7883 86.977 38.3239 86.977 38.88C86.977 39.436 86.7674 39.9716 86.39 40.38L82.7 44.23C82.5087 44.4296 82.2789 44.5885 82.0246 44.697C81.7702 44.8055 81.4965 44.8615 81.22 44.8615C80.9435 44.8615 80.6698 44.8055 80.4155 44.697C80.1611 44.5885 79.9313 44.4296 79.74 44.23V44.23ZM9.61 37.38L25.85 20.63C26.0418 20.424 26.274 20.2598 26.5321 20.1475C26.7901 20.0352 27.0686 19.9773 27.35 19.9773C27.6314 19.9773 27.9099 20.0352 28.1679 20.1475C28.426 20.2598 28.6582 20.424 28.85 20.63L32.54 24.44C32.9174 24.8483 33.127 25.3839 33.127 25.94C33.127 26.496 32.9174 27.0316 32.54 27.44L16.26 44.23C16.0682 44.4359 15.836 44.6001 15.5779 44.7124C15.3199 44.8247 15.0414 44.8827 14.76 44.8827C14.4786 44.8827 14.2001 44.8247 13.9421 44.7124C13.684 44.6001 13.4518 44.4359 13.26 44.23L9.61 40.42C9.22105 40.0095 9.00427 39.4655 9.00427 38.9C9.00427 38.3345 9.22105 37.7905 9.61 37.38V37.38Z" stroke="#00008F" stroke-width="2" stroke-linecap="round" stroke-linejoin="round"/>
<path d="M48 34.33C44.59 30.82 39.93 30.2 35.45 32.05L31.76 28.24L17 43.47L28.07 54.89" stroke="#00008F" stroke-width="2" stroke-linecap="round" stroke-linejoin="round"/>
<path d="M27 56L28.48 54.48C28.9078 54.0298 29.4228 53.6713 29.9935 53.4263C30.5643 53.1813 31.1789 53.055 31.8 53.055C32.4211 53.055 33.0357 53.1813 33.6064 53.4263C34.1772 53.6713 34.6921 54.0298 35.12 54.48C36.0055 55.4003 36.5001 56.6279 36.5001 57.905C36.5001 59.1821 36.0055 60.4097 35.12 61.33L33.6 62.88C33.1707 63.3277 32.6552 63.6839 32.0847 63.9272C31.5141 64.1706 30.9003 64.296 30.28 64.296C29.6597 64.296 29.0458 64.1706 28.4753 63.9272C27.9048 63.6839 27.3893 63.3277 26.96 62.88C26.0848 61.946 25.6011 60.712 25.6085 59.432C25.616 58.1521 26.114 56.9237 27 56V56Z" stroke="#00008F" stroke-width="2" stroke-linecap="round" stroke-linejoin="round"/>
<path d="M33.6 62.88L35.08 61.36C35.5078 60.9098 36.0228 60.5513 36.5935 60.3063C37.1643 60.0613 37.7789 59.935 38.4 59.935C39.0211 59.935 39.6357 60.0613 40.2064 60.3063C40.7772 60.5513 41.2921 60.9098 41.72 61.36C42.6055 62.2803 43.1001 63.5079 43.1001 64.785C43.1001 66.0621 42.6055 67.2897 41.72 68.21L40.25 69.73C39.8198 70.178 39.3035 70.5344 38.7321 70.7778C38.1608 71.0213 37.5461 71.1468 36.925 71.1468C36.3039 71.1468 35.6892 71.0213 35.1179 70.7778C34.5465 70.5344 34.0302 70.178 33.6 69.73C32.7281 68.8027 32.2427 67.5778 32.2427 66.305C32.2427 65.0322 32.7281 63.8073 33.6 62.88V62.88Z" stroke="#00008F" stroke-width="2" stroke-linecap="round" stroke-linejoin="round"/>
<path d="M40.25 69.73L41.72 68.21C42.1502 67.762 42.6665 67.4056 43.2379 67.1622C43.8092 66.9187 44.4239 66.7932 45.045 66.7932C45.6661 66.7932 46.2808 66.9187 46.8521 67.1622C47.4235 67.4056 47.9398 67.762 48.37 68.21C49.2419 69.1373 49.7273 70.3622 49.7273 71.635C49.7273 72.9078 49.2419 74.1327 48.37 75.06L46.89 76.58C46.4607 77.0277 45.9452 77.3839 45.3747 77.6272C44.8041 77.8706 44.1903 77.996 43.57 77.996C42.9497 77.996 42.3358 77.8706 41.7653 77.6272C41.1948 77.3839 40.6793 77.0277 40.25 76.58C39.3645 75.6596 38.8699 74.4321 38.8699 73.155C38.8699 71.8778 39.3645 70.6503 40.25 69.73V69.73ZM79 43.47L64.24 28.24L60.55 32.05C58.358 31.147 55.9446 30.9265 53.6252 31.4171C51.3059 31.9077 49.1885 33.0867 47.55 34.8L40.39 42.18C39.5324 43.0495 39.0152 44.198 38.9327 45.4165C38.8501 46.635 39.2075 47.8427 39.94 48.82C40.3452 49.3494 40.8606 49.7845 41.4506 50.095C42.0405 50.4055 42.6909 50.5841 43.3568 50.6183C44.0226 50.6526 44.6879 50.5417 45.3066 50.2933C45.9253 50.045 46.4826 49.6651 46.94 49.18L52.48 43.47C52.7665 43.1714 53.1104 42.9339 53.4911 42.7716C53.8717 42.6094 54.2812 42.5257 54.695 42.5257C55.1088 42.5257 55.5183 42.6094 55.8989 42.7716C56.2796 42.9339 56.6235 43.1714 56.91 43.47L67.93 54.89L79 43.47Z" stroke="#00008F" stroke-width="2" stroke-linecap="round" stroke-linejoin="round"/>
</svg>

<svg width="96" height="96" viewBox="0 0 96 96" fill="none" xmlns="http://www.w3.org/2000/svg"><path d="M48 75.44l1 1a4.74 4.74 0 006.45.47 5 5 0 00.34-7.17 4.61 4.61 0 006.65 0 5 5 0 000-6.85 4.61 4.61 0 006.95-.35 5.11 5.11 0 00-.45-6.65L57.6 44.23m22.14 0L63.5 27.48a2.21 2.21 0 010-3l3.69-3.81a2.049 2.049 0 013 0l16.2 16.71a2.21 2.21 0 010 3l-3.69 3.85a2.05 2.05 0 01-2.96 0v0zM9.61 37.38l16.24-16.75a2.049 2.049 0 013 0l3.69 3.81a2.21 2.21 0 010 3L16.26 44.23a2.05 2.05 0 01-3 0l-3.65-3.81a2.21 2.21 0 010-3.04v0z" stroke="#00008F" stroke-width="2" stroke-linecap="round" stroke-linejoin="round"/><path d="M48 34.33c-3.41-3.51-8.07-4.13-12.55-2.28l-3.69-3.81L17 43.47l11.07 11.42" stroke="#00008F" stroke-width="2" stroke-linecap="round" stroke-linejoin="round"/><path d="M27 56l1.48-1.52a4.58 4.58 0 016.64 0 4.94 4.94 0 010 6.85l-1.52 1.55a4.599 4.599 0 01-6.64 0A5 5 0 0127 56v0z" stroke="#00008F" stroke-width="2" stroke-linecap="round" stroke-linejoin="round"/><path d="M33.6 62.88l1.48-1.52a4.58 4.58 0 016.64 0 4.94 4.94 0 010 6.85l-1.47 1.52a4.608 4.608 0 01-6.65 0 5 5 0 010-6.85v0z" stroke="#00008F" stroke-width="2" stroke-linecap="round" stroke-linejoin="round"/><path d="M40.25 69.73l1.47-1.52a4.608 4.608 0 016.65 0 5 5 0 010 6.85l-1.48 1.52a4.599 4.599 0 01-6.64 0 4.94 4.94 0 010-6.85v0zM79 43.47L64.24 28.24l-3.69 3.81a11.78 11.78 0 00-13 2.75l-7.16 7.38a5.1 5.1 0 00-.45 6.64 4.6 4.6 0 007 .36l5.54-5.71a3.07 3.07 0 014.43 0l11.02 11.42L79 43.47z" stroke="#00008F" stroke-width="2" stroke-linecap="round" stroke-linejoin="round"/></svg>
